X:1
T: Corylus
N:
C:
S:
A:
O:
R:
M:4/4
K:Am
I:speed 200
%W:                 A1
% voice 1 (1 lines, 33 notes)
K:Am
M:4/4
L:1/16
E4 F4 |A6 B2 c4 d4 |g8 e4 e4 |d6 c2 B4 c2 B2 |A12 e2 f2 |g4 e4 e2 f2 g4 |a8 g4 f4 |e4 d4 B4 g2 f2 |e8 e4 f4 |
%W:         A2
% voice 1 (1 lines, 31 notes)
g8 e2 f2 g4 |a4 a4 g4 f4 |e4 d4 g4 B4 |c4 B4 A4 G4 |A6 B2 c4 d4 |g8 e4 e4 |d6 c2 B4 c2 B2 |A8 e4 f4 |
%W:         B1
% voice 1 (1 lines, 35 notes)
g4 e4 f4 ^g4 |a4 e4e4 d2 c2 |B4 G4 A2 B2 c4 |d8 c4 B4 |c4 d4 e2 f2 ^g4 |a4 e4e4 d2 c2 |B4 A4 G2 A2 B4 |A8 e4 f4 |
%W:         B2
% voice 1 (1 lines, 33 notes)
g4 e4 f4 ^g4 |a4 e4e4 d2 c2 |B4 G4 A2 B2 c4 |d8 c4 B4 |c4 d4 e2 f2 ^g4 |a4 e4e4 d2 c2 |B4 A4 G2 A2 B4 |A8 ||
